;FLAVOR:Marlin
;TIME:8303
;Filament used: 2.97153m
;Layer height: 0.12
;MINX:59
;MINY:72.993
;MINZ:0.12
;MAXX:171.001
;MAXY:156.301
;MAXZ:8.04
;TARGET_MACHINE.NAME:Creality Ender-3 v2 Neo
;Generated with Cura_SteamEngine 5.8.1
M82 ;absolute extrusion mode
; Script based on an original created by tjjfvi (https://github.com/tjjfvi)
; An up-to-date version of the tjjfvi's original script can be found
; here:  https://csi.t6.fyi/
; Note - This script will not work in Cura V4.2 and above!
; max_feedrate_z_override = 0
; retraction_amount = 4
; retraction_hop = 0.2
; retraction_hop_enabled = False
; retraction_prime_speed = 25
; retraction_retract_speed = 25
; retraction_speed = 25
; speed_travel = 150.0
; retraction_enable = True
; layer_height = 0.12
; smooth_spiralized_contours = True

; Ender 3 V2 Neo Custom Start G-code

G4 P1 ; Delay start defined in milliseconds

G92 E0 ; Reset Extruder

M140 S60 ; Set Heat Bed temperature
M104 S210.0 ; Set Extruder temperature

G28 ; Home all axes
@BEDLEVELVISUALIZER	; tell the plugin to watch for reported mesh
G29 ; Auto bed-level (BL-Touch)
M500 ; Used to store G29 results in memory

G92 E0 ; Reset Extruder
G1 Z3.0 F3000 ; Move Z Axis up little to prevent scratching of Heat Bed

M109 S210.0 ; Wait for Extruder temperature
M190 S60 ; Wait for Heat Bed temperature

M300 S440 P500 ; plays a tone at 440 Hz for 250 ms
G1 X0.1 Y20 Z0.3 F5000.0 ; Move to start position
G1 X0.1 Y200.0 Z0.3 F1500.0 E15 ; Draw the first line
G1 X0.4 Y200.0 Z0.3 F5000.0 ; Move to side a little
G1 X0.4 Y20 Z0.3 F1500.0 E30 ; Draw the second line

G92 E0 ; Reset Extruder
G1 Z2.0 F3000 ; Move Z Axis up little to prevent scratching of Heat Bed
G1 X5 Y20 Z0.3 F5000.0 ; Move over to prevent blob squish

M300 S523 P400 ; plays a tone at 523 Hz for 200 ms
G4 P800
M300 S659 P400 ; plays a tone at 659 Hz for 200 ms
G4 P800
M300 S784 P400 ; plays a tone at 784 Hz for 200 ms
G4 P800
G92 E0
G92 E0
G1 F1500 E-4
;LAYER_COUNT:67
;LAYER:0
M107
G0 F6000 X63.859 Y83.225 Z0.12
;TYPE:SKIRT
G1 F1500 E0
G1 F1200 X64.223 Y82.959 E0.009
G1 X64.974 Y82.458 E0.02701
G1 X65.905 Y81.952 E0.04816
G1 X67.09 Y81.462 E0.07375
G1 X69.338 Y80.7 E0.12112
G1 X71.713 Y79.849 E0.17146
G1 X74.067 Y78.931 E0.22189
G1 X76.345 Y77.966 E0.27126
G1 X78.693 Y76.892 E0.32278
G1 X80.933 Y75.791 E0.37259
G1 X83.145 Y74.634 E0.42241
G1 X83.964 Y74.252 E0.44044
G1 X85.075 Y73.855 E0.46399
G1 X86.106 Y73.553 E0.48543
G1 X86.834 Y73.361 E0.50045
G1 X87.787 Y73.156 E0.5199
G1 X88.759 Y73.036 E0.53945
G1 X89.868 Y73.004 E0.56159
G1 X90.64 Y73.021 E0.577
G1 X94.527 Y73.034 E0.65457
G1 X95.389 Y73.02 E0.67177
G1 X99.505 Y73.021 E0.75391
G1 X100.363 Y73.033 E0.77104
G1 X102.981 Y73.031 E0.82328
G1 X104.66 Y72.993 E0.8568
G1 X106.043 Y73.053 E0.88442
G1 X106.709 Y73.127 E0.89779
G1 X109.301 Y73.37 E0.94975
G1 X111.819 Y73.535 E1.0001
G1 X114.35 Y73.63 E1.05065
G1 X116.882 Y73.654 E1.10118
G1 X119.35 Y73.606 E1.15044
G1 X121.914 Y73.485 E1.20167
G1 X124.428 Y73.294 E1.25198
G1 X126.77 Y73.057 E1.29896
G1 X128.092 Y73.008 E1.32536
G1 X128.738 Y73.023 E1.33825
G1 X132.59 Y73.036 E1.41512
G1 X133.572 Y73.02 E1.43472
G1 X137.916 Y73.021 E1.52141
G1 X139.04 Y73.037 E1.54384
G1 X141.63 Y73.037 E1.59553
G1 X143.03 Y73.007 E1.62347
G1 X144.002 Y73.032 E1.64288
G1 X144.938 Y73.137 E1.66167
G1 X146.019 Y73.363 E1.68371
G1 X146.919 Y73.599 E1.70228
G1 X147.836 Y73.866 E1.72134
G1 X148.756 Y74.186 E1.74078
G1 X149.639 Y74.584 E1.76011
G1 X150.363 Y74.982 E1.77659
G1 X151.293 Y75.543 E1.79827
G1 X153.587 Y76.881 E1.85127
G1 X155.757 Y78.067 E1.90062
G1 X158.016 Y79.219 E1.95122
G1 X160.262 Y80.286 E2.00084
G1 X162.824 Y81.411 E2.05668
G1 X163.636 Y81.754 E2.07427
G1 X164.531 Y82.181 E2.09406
G1 X165.366 Y82.675 E2.11342
G1 X166.098 Y83.192 E2.13131
G1 X166.896 Y83.834 E2.15175
G1 X167.607 Y84.522 E2.17149
G1 X168.47 Y85.553 E2.19832
G1 X168.737 Y85.918 E2.20735
G1 X169.276 Y86.73 E2.2268
G1 X169.728 Y87.563 E2.24571
G1 X170.265 Y88.865 E2.27382
G1 X170.419 Y89.324 E2.28348
G1 X170.688 Y90.26 E2.30291
G1 X170.872 Y91.215 E2.32232
G1 X170.971 Y92.167 E2.34142
G1 X170.989 Y92.668 E2.35143
G1 X171 Y93.542 E2.36887
G1 X171.001 Y143.376 E3.36336
G1 X170.989 Y144.213 E3.38006
G1 X170.931 Y145.185 E3.3995
G1 X170.793 Y146.114 E3.41824
G1 X170.713 Y146.52 E3.4265
G1 X170.492 Y147.438 E3.44534
G1 X170.076 Y148.626 E3.47046
G1 X169.95 Y148.928 E3.47699
G1 X169.548 Y149.776 E3.49572
G1 X169.075 Y150.587 E3.51445
G1 X168.695 Y151.141 E3.52786
G1 X168.478 Y151.437 E3.53518
G1 X167.866 Y152.196 E3.55464
G1 X167.178 Y152.907 E3.57439
G1 X166.147 Y153.77 E3.60122
G1 X165.782 Y154.037 E3.61024
G1 X164.97 Y154.576 E3.62969
G1 X164.137 Y155.028 E3.6486
G1 X162.828 Y155.567 E3.67685
G1 X162.368 Y155.721 E3.68654
G1 X161.432 Y155.99 E3.70597
G1 X160.475 Y156.173 E3.72541
G1 X159.524 Y156.271 E3.74449
G1 X159.03 Y156.289 E3.75436
G1 X158.155 Y156.298 E3.77182
G1 X71.897 Y156.301 E5.49319
G1 X71.085 Y156.289 E5.5094
G1 X70.113 Y156.23 E5.52883
G1 X69.189 Y156.093 E5.54747
G1 X68.773 Y156.011 E5.55593
G1 X67.856 Y155.789 E5.57476
G1 X66.642 Y155.363 E5.60044
G1 X66.369 Y155.248 E5.60635
G1 X65.552 Y154.863 E5.62437
G1 X64.66 Y154.34 E5.64501
G1 X64.1 Y153.952 E5.6586
G1 X63.801 Y153.729 E5.66605
G1 X63.047 Y153.113 E5.68548
G1 X62.399 Y152.484 E5.7035
G1 X61.52 Y151.432 E5.73086
G1 X61.272 Y151.093 E5.73924
G1 X60.733 Y150.283 E5.75865
G1 X60.284 Y149.46 E5.77736
G1 X59.883 Y148.544 E5.79732
G1 X59.577 Y147.665 E5.81589
G1 X59.305 Y146.706 E5.83578
G1 X59.124 Y145.75 E5.8552
G1 X59.027 Y144.798 E5.8743
G1 X59.011 Y144.322 E5.8838
G1 X59 Y143.432 E5.90156
G1 X59 Y93.413 E6.89975
G1 X59.011 Y92.772 E6.91254
G1 X59.071 Y91.801 E6.93196
G1 X59.21 Y90.87 E6.95074
G1 X59.291 Y90.46 E6.95908
G1 X59.514 Y89.544 E6.9779
G1 X59.921 Y88.382 E7.00247
G1 X60.045 Y88.086 E7.00887
G1 X60.461 Y87.205 E7.02831
G1 X60.916 Y86.425 E7.04633
G1 X61.3 Y85.865 E7.05988
G1 X61.52 Y85.566 E7.06729
G1 X62.131 Y84.809 E7.0867
G1 X62.819 Y84.095 E7.10649
G1 X63.859 Y83.225 E7.13355
G0 F6000 X64.096 Y83.548
G1 F1200 X64.445 Y83.292 E7.14219
G1 X65.196 Y82.791 E7.1602
G1 X66.058 Y82.322 E7.17979
G1 X67.243 Y81.832 E7.20538
G1 X69.473 Y81.077 E7.25236
G1 X71.848 Y80.226 E7.30271
G1 X74.212 Y79.304 E7.35334
G1 X76.511 Y78.33 E7.40317
G1 X78.859 Y77.256 E7.4547
G1 X81.109 Y76.15 E7.50473
G1 X83.314 Y74.997 E7.55439
G1 X84.133 Y74.615 E7.57242
G1 X85.188 Y74.239 E7.59477
G1 X86.208 Y73.94 E7.61598
G1 X86.919 Y73.752 E7.63066
G1 X87.837 Y73.553 E7.6494
G1 X88.771 Y73.436 E7.66819
G1 X89.859 Y73.404 E7.68991
G1 X90.631 Y73.421 E7.70532
G1 X94.533 Y73.434 E7.78319
G1 X95.389 Y73.42 E7.80027
G1 X99.499 Y73.421 E7.88229
G1 X100.357 Y73.433 E7.89942
G1 X102.99 Y73.431 E7.95196
G1 X104.643 Y73.393 E7.98496
G1 X105.999 Y73.451 E8.01204
G1 X106.665 Y73.524 E8.02541
G1 X109.275 Y73.769 E8.07773
G1 X111.804 Y73.935 E8.12831
G1 X114.335 Y74.03 E8.17885
G1 X116.886 Y74.054 E8.22976
G1 X119.369 Y74.006 E8.27932
G1 X121.933 Y73.885 E8.33054
G1 X124.458 Y73.693 E8.38108
G1 X126.785 Y73.457 E8.42776
G1 X128.083 Y73.408 E8.45368
G1 X128.729 Y73.423 E8.46657
G1 X132.596 Y73.436 E8.54374
G1 X133.572 Y73.42 E8.56322
G1 X137.91 Y73.421 E8.64979
G1 X139.034 Y73.437 E8.67222
G1 X141.639 Y73.437 E8.72421
G1 X143.02 Y73.407 E8.75178
G1 X143.957 Y73.43 E8.77048
G1 X144.893 Y73.535 E8.78928
G1 X145.918 Y73.75 E8.81018
G1 X146.807 Y73.983 E8.82852
G1 X147.705 Y74.244 E8.84718
G1 X148.592 Y74.551 E8.86591
G1 X149.446 Y74.935 E8.8846
G1 X150.156 Y75.325 E8.90076
G1 X151.091 Y75.889 E8.92255
G1 X153.385 Y77.227 E8.97555
G1 X155.565 Y78.418 E9.02512
G1 X157.844 Y79.58 E9.07617
G1 X160.101 Y80.652 E9.12604
G1 X162.669 Y81.78 E9.18201
G1 X163.464 Y82.115 E9.19923
G1 X164.328 Y82.526 E9.21832
G1 X165.135 Y83.002 E9.23702
G1 X165.867 Y83.519 E9.2549
G1 X166.618 Y84.122 E9.27412
G1 X167.3 Y84.779 E9.29302
G1 X168.163 Y85.81 E9.31985
G1 X168.404 Y86.14 E9.32801
G1 X168.924 Y86.921 E9.34673
G1 X169.376 Y87.754 E9.36564
G1 X169.886 Y88.993 E9.39238
G1 X170.035 Y89.435 E9.40169
G1 X170.295 Y90.336 E9.4204
G1 X170.474 Y91.257 E9.43913
G1 X170.571 Y92.182 E9.45769
G1 X170.589 Y92.673 E9.46749
G1 X170.6 Y93.542 E9.48484
G1 X170.601 Y143.371 E10.47923
G1 X170.59 Y144.19 E10.49557
G1 X170.535 Y145.126 E10.51428
G1 X170.4 Y146.037 E10.53266
G1 X170.324 Y146.427 E10.54059
G1 X170.114 Y147.306 E10.55863
G1 X169.698 Y148.494 E10.58375
G1 X169.588 Y148.757 E10.58944
G1 X169.202 Y149.574 E10.60747
G1 X168.729 Y150.385 E10.6262
G1 X168.373 Y150.904 E10.63876
G1 X168.166 Y151.186 E10.64574
G1 X167.578 Y151.918 E10.66448
G1 X166.921 Y152.6 E10.68338
G1 X165.89 Y153.463 E10.71021
G1 X165.56 Y153.704 E10.71836
G1 X164.779 Y154.224 E10.73709
G1 X163.946 Y154.676 E10.756
G1 X162.7 Y155.188 E10.78288
G1 X162.257 Y155.337 E10.79221
G1 X161.356 Y155.597 E10.81093
G1 X160.434 Y155.775 E10.82967
G1 X159.509 Y155.871 E10.84822
G1 X159.025 Y155.889 E10.85789
G1 X158.153 Y155.899 E10.87529
G1 X71.903 Y155.901 E12.5965
G1 X71.109 Y155.89 E12.61235
G1 X70.172 Y155.834 E12.63108
G1 X69.266 Y155.7 E12.64936
G1 X68.866 Y155.622 E12.65749
G1 X67.988 Y155.411 E12.67551
G1 X66.797 Y154.994 E12.7007
G1 X66.54 Y154.886 E12.70626
G1 X65.723 Y154.501 E12.72428
G1 X64.888 Y154.011 E12.7436
G1 X64.339 Y153.631 E12.75693
G1 X64.054 Y153.419 E12.76402
G1 X63.326 Y152.826 E12.78275
G1 X62.678 Y152.197 E12.80078
G1 X61.843 Y151.196 E12.82679
G1 X61.605 Y150.871 E12.83483
G1 X61.084 Y150.091 E12.85355
G1 X60.65 Y149.299 E12.87157
G1 X60.261 Y148.412 E12.8909
G1 X59.962 Y147.555 E12.90901
G1 X59.698 Y146.631 E12.92819
G1 X59.522 Y145.709 E12.94692
G1 X59.427 Y144.784 E12.96548
G1 X59.411 Y144.317 E12.9748
G1 X59.4 Y143.427 E12.99256
G1 X59.4 Y93.419 E13.99053
G1 X59.41 Y92.796 E14.00296
G1 X59.467 Y91.86 E14.02168
G1 X59.603 Y90.947 E14.0401
G1 X59.68 Y90.554 E14.04809
G1 X59.892 Y89.676 E14.06611
G1 X60.299 Y88.514 E14.09068
G1 X60.407 Y88.256 E14.09626
G1 X60.807 Y87.407 E14.11499
G1 X61.262 Y86.627 E14.13301
G1 X61.623 Y86.102 E14.14573
G1 X61.832 Y85.817 E14.15278
G1 X62.42 Y85.086 E14.1715
G1 X63.076 Y84.402 E14.19042
G1 X64.096 Y83.548 E14.21696
G0 F6000 X64.353 Y83.855
G1 F1200 X64.667 Y83.625 E14.22473
G1 X65.418 Y83.124 E14.24275
G1 X66.211 Y82.692 E14.26077
G1 X67.396 Y82.202 E14.28636
G1 X69.608 Y81.454 E14.33296
G1 X71.992 Y80.6 E14.38349
G1 X74.358 Y79.676 E14.43418
G1 X76.677 Y78.694 E14.48444
G1 X79.025 Y77.62 E14.53596
G1 X81.285 Y76.509 E14.58622
G1 X83.483 Y75.36 E14.63571
G1 X84.302 Y74.978 E14.65375
G1 X85.3 Y74.623 E14.67489
G1 X86.311 Y74.327 E14.69591
G1 X87.004 Y74.143 E14.71022
G1 X87.887 Y73.95 E14.72826
G1 X88.783 Y73.836 E14.74628
G1 X89.85 Y73.804 E14.76758
G1 X90.622 Y73.821 E14.78299
G1 X94.539 Y73.834 E14.86116
G1 X95.389 Y73.82 E14.87813
G1 X99.493 Y73.821 E14.96003
G1 X100.351 Y73.833 E14.97715
G1 X102.999 Y73.831 E15.02999
G1 X104.626 Y73.793 E15.06247
G1 X105.956 Y73.849 E15.08904
G1 X106.622 Y73.921 E15.10241
G1 X109.249 Y74.168 E15.15506
G1 X111.789 Y74.335 E15.20586
G1 X114.32 Y74.43 E15.2564
G1 X116.89 Y74.454 E15.30769
G1 X119.388 Y74.406 E15.35755
G1 X121.952 Y74.285 E15.40878
G1 X124.488 Y74.092 E15.45953
G1 X126.8 Y73.857 E15.50591
G1 X128.074 Y73.808 E15.53135
G1 X128.72 Y73.823 E15.54425
G1 X132.602 Y73.836 E15.62172
G1 X133.572 Y73.82 E15.64108
G1 X137.904 Y73.821 E15.72753
G1 X139.028 Y73.837 E15.74996
G1 X141.648 Y73.837 E15.80224
G1 X143.011 Y73.807 E15.82945
G1 X143.913 Y73.828 E15.84746
G1 X144.811 Y73.927 E15.86548
G1 X145.817 Y74.137 E15.88599
G1 X146.696 Y74.367 E15.90413
G1 X147.575 Y74.622 E15.92239
G1 X148.429 Y74.916 E15.94041
G1 X149.253 Y75.285 E15.95843
G1 X149.949 Y75.668 E15.97428
G1 X150.884 Y76.232 E15.99608
G1 X153.193 Y77.578 E16.04941
G1 X155.373 Y78.769 E16.09898
G1 X157.672 Y79.941 E16.15048
G1 X159.94 Y81.018 E16.20059
G1 X162.514 Y82.149 E16.25669
G1 X163.309 Y82.484 E16.27391
G1 X164.125 Y82.871 E16.29193
G1 X164.904 Y83.329 E16.30997
G1 X165.636 Y83.846 E16.32785
G1 X166.341 Y84.411 E16.34588
G1 X166.993 Y85.036 E16.3639
G1 X167.84 Y86.047 E16.39022
G1 X168.071 Y86.362 E16.39802
G1 X168.573 Y87.113 E16.41605
G1 X169.006 Y87.906 E16.43408
G1 X169.507 Y89.121 E16.4603
G1 X169.651 Y89.546 E16.46926
G1 X169.902 Y90.413 E16.48727
G1 X170.076 Y91.299 E16.50529
G1 X170.171 Y92.197 E16.52331
G1 X170.189 Y92.678 E16.53292
G1 X170.2 Y93.542 E16.55016
G1 X170.201 Y143.366 E17.54445
G1 X170.191 Y144.167 E17.56044
G1 X170.139 Y145.068 E17.57845
G1 X170.007 Y145.961 E17.59646
G1 X169.935 Y146.334 E17.60404
G1 X169.725 Y147.213 E17.62208
G1 X169.329 Y148.34 E17.64592
G1 X169.226 Y148.586 E17.65124
G1 X168.84 Y149.403 E17.66927
G1 X168.384 Y150.183 E17.6873
G1 X168.05 Y150.668 E17.69905
G1 X167.854 Y150.936 E17.70568
G1 X167.289 Y151.641 E17.72371
G1 X166.664 Y152.293 E17.74173
G1 X165.653 Y153.14 E17.76805
G1 X165.338 Y153.371 E17.77585
G1 X164.587 Y153.873 E17.79387
G1 X163.794 Y154.306 E17.81191
G1 X162.572 Y154.809 E17.83828
G1 X162.146 Y154.953 E17.84725
G1 X161.279 Y155.204 E17.86526
G1 X160.392 Y155.377 E17.8833
G1 X159.494 Y155.471 E17.90132
G1 X159.02 Y155.489 E17.91078
G1 X158.151 Y155.5 E17.92813
G1 X71.908 Y155.501 E19.6492
G1 X71.132 Y155.491 E19.66468
G1 X70.23 Y155.438 E19.68272
G1 X69.342 Y155.307 E19.70063
G1 X68.959 Y155.233 E19.70841
G1 X68.081 Y155.022 E19.72643
G1 X66.952 Y154.625 E19.75032
G1 X66.711 Y154.524 E19.75553
G1 X65.894 Y154.139 E19.77355
G1 X65.115 Y153.682 E19.79158
G1 X64.577 Y153.31 E19.80463
G1 X64.306 Y153.109 E19.81136
G1 X63.605 Y152.539 E19.82939
G1 X62.957 Y151.91 E19.84742
G1 X62.165 Y150.959 E19.87211
G1 X61.937 Y150.649 E19.87979
G1 X61.435 Y149.899 E19.8978
G1 X61.001 Y149.107 E19.91583
G1 X60.639 Y148.28 E19.93384
G1 X60.34 Y147.423 E19.95196
G1 X60.091 Y146.555 E19.96998
G1 X59.92 Y145.668 E19.988
G1 X59.827 Y144.77 E20.00602
G1 X59.811 Y144.312 E20.01516
G1 X59.8 Y143.422 E20.03293
G1 X59.8 Y93.425 E21.03067
G1 X59.809 Y92.82 E21.04275
G1 X59.863 Y91.919 E21.06076
G1 X59.996 Y91.023 E21.07884
G1 X60.069 Y90.648 E21.08646
G1 X60.281 Y89.77 E21.10448
G1 X60.668 Y88.668 E21.12779
G1 X60.769 Y88.426 E21.13303
G1 X61.153 Y87.609 E21.15104
G1 X61.608 Y86.829 E21.16906
G1 X61.946 Y86.338 E21.18096
G1 X62.144 Y86.067 E21.18765
G1 X62.709 Y85.362 E21.20568
G1 X63.333 Y84.709 E21.22371
G1 X64.353 Y83.855 E21.25026
G1 F1500 E17.25026
G0 F6000 X88.318 Y84.565
G1 F1500 E21.25026
G1 F1200 X89.625 Y84.198 E21.27735
G1 X90.932 Y84.565 E21.30444
G1 X91.883 Y85.566 E21.33199
G1 X92.246 Y86.816 E21.35797
G1 X92.193 Y87.005 E21.36189
G1 X92.194 Y87.082 E21.36342
G1 X91.839 Y88.349 E21.38968
G1 X90.937 Y89.251 E21.41514
G1 X89.684 Y89.602 E21.4411
G1 X88.49 Y89.252 E21.46594
G1 X87.531 Y88.292 E21.49301
G1 X87.52 Y88.254 E21.4938
G1 X87.471 Y88.171 E21.49573
G1 X87.37 Y88.069 E21.49859
G1 X87.002 Y86.818 E21.52461
G1 X87.368 Y85.566 E21.55065
G1 X88.318 Y84.565 E21.57819
G0 F6000 X88.532 Y84.92
G1 F1200 X89.625 Y84.613 E21.60084
G1 X90.718 Y84.92 E21.6235
G1 X91.526 Y85.771 E21.64692
G1 X91.83 Y86.818 E21.66867
G1 X91.808 Y86.897 E21.67031
G1 X91.798 Y87.016 E21.67269
G1 X91.482 Y88.14 E21.69599
G1 X90.728 Y88.894 E21.71727
G1 X89.688 Y89.186 E21.73883
G1 X88.701 Y88.897 E21.75935
G1 X87.844 Y88.04 E21.78354
G1 X87.755 Y87.889 E21.78704
G1 X87.725 Y87.859 E21.78788
G1 X87.419 Y86.817 E21.80956
G1 X87.725 Y85.77 E21.83132
G1 X88.532 Y84.92 E21.85471
G0 F6000 X88.746 Y85.276
G1 F1200 X89.625 Y85.029 E21.87293
G1 X90.503 Y85.275 E21.89113
G1 X91.169 Y85.976 E21.91043
G1 X91.417 Y86.832 E21.92821
G1 X91.403 Y86.943 E21.93044
G1 X91.126 Y87.93 E21.9509
G1 X90.519 Y88.537 E21.96803
G1 X89.69 Y88.77 E21.98522
G1 X88.912 Y88.542 E22.0014
G1 X88.192 Y87.821 E22.02173
G1 X88.167 Y87.767 E22.02292
G1 X88.085 Y87.665 E22.02553
G1 X87.836 Y86.817 E22.04317
G1 X88.083 Y85.974 E22.0607
G1 X88.746 Y85.276 E22.07991
G0 F6000 X88.962 Y85.63
G1 F1200 X89.625 Y85.444 E22.09365
G1 X90.29 Y85.631 E22.10744
G1 X90.812 Y86.18 E22.12255
G1 X91.01 Y86.863 E22.13674
G1 X90.769 Y87.721 E22.15453
G1 X90.309 Y88.181 E22.16751
G1 X89.693 Y88.354 E22.18028
G1 X89.122 Y88.186 E22.19216
G1 X88.529 Y87.593 E22.20889
G1 X88.45 Y87.491 E22.21147
