;FLAVOR:Marlin
;TIME:1528
;Filament used: 0.575216m
;Layer height: 0.12
;MINX:89.002
;MINY:91.552
;MINZ:0.12
;MAXX:140.998
;MAXY:138.548
;MAXZ:6.72
;TARGET_MACHINE.NAME:Creality Ender-3 v2 Neo
;Generated with Cura_SteamEngine 5.8.1
M82 ;absolute extrusion mode
; Script based on an original created by tjjfvi (https://github.com/tjjfvi)
; An up-to-date version of the tjjfvi's original script can be found
; here:  https://csi.t6.fyi/
; Note - This script will not work in Cura V4.2 and above!
; max_feedrate_z_override = 0
; retraction_amount = 4
; retraction_hop = 0.2
; retraction_hop_enabled = False
; retraction_prime_speed = 25
; retraction_retract_speed = 25
; retraction_speed = 25
; speed_travel = 150.0
; retraction_enable = True
; layer_height = 0.12
; smooth_spiralized_contours = True

; Ender 3 V2 Neo Custom Start G-code

G4 P1 ; Delay start defined in milliseconds

G92 E0 ; Reset Extruder

M140 S60 ; Set Heat Bed temperature
M104 S210.0 ; Set Extruder temperature

G28 ; Home all axes
@BEDLEVELVISUALIZER	; tell the plugin to watch for reported mesh
G29 ; Auto bed-level (BL-Touch)
M500 ; Used to store G29 results in memory

G92 E0 ; Reset Extruder
G1 Z3.0 F3000 ; Move Z Axis up little to prevent scratching of Heat Bed

M109 S210.0 ; Wait for Extruder temperature
M190 S60 ; Wait for Heat Bed temperature

M300 S440 P500 ; plays a tone at 440 Hz for 250 ms
G1 X0.1 Y20 Z0.3 F5000.0 ; Move to start position
G1 X0.1 Y200.0 Z0.3 F1500.0 E15 ; Draw the first line
G1 X0.4 Y200.0 Z0.3 F5000.0 ; Move to side a little
G1 X0.4 Y20 Z0.3 F1500.0 E30 ; Draw the second line

G92 E0 ; Reset Extruder
G1 Z2.0 F3000 ; Move Z Axis up little to prevent scratching of Heat Bed
G1 X5 Y20 Z0.3 F5000.0 ; Move over to prevent blob squish

M300 S523 P400 ; plays a tone at 523 Hz for 200 ms
G4 P800
M300 S659 P400 ; plays a tone at 659 Hz for 200 ms
G4 P800
M300 S784 P400 ; plays a tone at 784 Hz for 200 ms
G4 P800
G92 E0
G92 E0
G1 F1500 E-4
;LAYER_COUNT:56
;LAYER:0
M107
G0 F6000 X93.121 Y95.078 Z0.12
;TYPE:SKIRT
G1 F1500 E0
G1 F1200 X93.464 Y94.766 E0.00925
G1 X94.192 Y94.161 E0.02814
G1 X95.377 Y93.373 E0.05654
G1 X95.728 Y93.173 E0.0646
G1 X96.607 Y92.721 E0.08433
G1 X97.814 Y92.252 E0.11017
G1 X98.122 Y92.153 E0.11663
G1 X99.387 Y91.828 E0.14269
G1 X99.75 Y91.758 E0.15007
G1 X100.644 Y91.625 E0.16811
G1 X101.651 Y91.563 E0.18824
G1 X102.328 Y91.553 E0.20175
G1 X127.391 Y91.552 E0.70191
G1 X128.28 Y91.565 E0.71965
G1 X129.481 Y91.651 E0.74368
G1 X129.874 Y91.703 E0.75159
G1 X130.794 Y91.864 E0.77023
G1 X131.56 Y92.06 E0.78601
G1 X131.908 Y92.164 E0.79326
G1 X132.854 Y92.494 E0.81325
G1 X133.938 Y92.998 E0.83711
G1 X134.233 Y93.156 E0.84379
G1 X135.009 Y93.619 E0.86182
G1 X135.528 Y93.98 E0.87444
G1 X135.92 Y94.271 E0.88418
G1 X136.68 Y94.89 E0.90374
G1 X137.467 Y95.667 E0.92581
G1 X137.773 Y96.002 E0.93486
G1 X138.405 Y96.763 E0.95461
G1 X139.144 Y97.873 E0.98122
G1 X139.363 Y98.252 E0.98995
G1 X139.816 Y99.133 E1.00972
G1 X140.322 Y100.443 E1.03775
G1 X140.435 Y100.804 E1.04529
G1 X140.752 Y102.084 E1.07161
G1 X140.809 Y102.394 E1.0779
G1 X140.94 Y103.354 E1.09724
G1 X140.987 Y104.192 E1.11399
G1 X140.997 Y104.841 E1.12694
G1 X140.998 Y124.919 E1.52762
G1 X140.985 Y125.825 E1.5457
G1 X140.9 Y127.019 E1.56959
G1 X140.849 Y127.406 E1.57738
G1 X140.683 Y128.358 E1.59666
G1 X140.499 Y129.076 E1.61145
G1 X140.389 Y129.449 E1.61921
G1 X140.097 Y130.304 E1.63724
G1 X139.437 Y131.715 E1.66833
G1 X138.86 Y132.667 E1.69054
G1 X138.302 Y133.441 E1.70959
G1 X137.671 Y134.217 E1.72955
G1 X136.933 Y134.971 E1.7506
G1 X136.605 Y135.275 E1.75953
G1 X135.859 Y135.902 E1.77897
G1 X135.069 Y136.456 E1.79823
G1 X134.284 Y136.921 E1.81644
G1 X133.482 Y137.337 E1.83447
G1 X132.186 Y137.848 E1.86227
G1 X131.878 Y137.947 E1.86872
G1 X130.613 Y138.272 E1.89479
G1 X130.25 Y138.342 E1.90216
G1 X129.356 Y138.475 E1.9202
G1 X128.349 Y138.537 E1.94033
G1 X127.672 Y138.547 E1.95385
G1 X102.609 Y138.548 E2.45401
G1 X101.721 Y138.535 E2.47173
G1 X100.539 Y138.451 E2.49538
G1 X100.149 Y138.4 E2.50323
G1 X99.228 Y138.241 E2.52188
G1 X98.465 Y138.047 E2.53759
G1 X98.081 Y137.932 E2.54559
G1 X97.15 Y137.608 E2.56526
G1 X96.028 Y137.085 E2.58996
G1 X95.751 Y136.934 E2.59626
G1 X94.952 Y136.455 E2.61485
G1 X94.462 Y136.113 E2.62677
G1 X94.075 Y135.826 E2.63639
G1 X93.319 Y135.208 E2.65588
G1 X92.574 Y134.478 E2.67669
G1 X92.265 Y134.142 E2.6858
G1 X91.64 Y133.397 E2.70521
G1 X91.086 Y132.607 E2.72446
G1 X90.629 Y131.835 E2.74236
G1 X90.167 Y130.932 E2.76261
G1 X89.685 Y129.674 E2.78949
G1 X89.534 Y129.185 E2.7997
G1 X89.225 Y127.904 E2.826
G1 X89.175 Y127.62 E2.83176
G1 X89.057 Y126.725 E2.84977
G1 X89.013 Y125.89 E2.86646
G1 X89.002 Y125.035 E2.88352
G1 X89.003 Y104.987 E3.2836
G1 X89.015 Y104.259 E3.29813
G1 X89.101 Y103.067 E3.32198
G1 X89.152 Y102.682 E3.32973
G1 X89.32 Y101.728 E3.34906
G1 X89.516 Y100.976 E3.36457
G1 X89.627 Y100.603 E3.37234
G1 X89.923 Y99.749 E3.39037
G1 X90.537 Y98.432 E3.41937
G1 X91.131 Y97.447 E3.44233
G1 X91.716 Y96.635 E3.4623
G1 X92.284 Y95.933 E3.48032
G1 X93.121 Y95.078 E3.5042
G0 F6000 X93.391 Y95.374
G1 F1200 X93.72 Y95.074 E3.51308
G1 X94.448 Y94.469 E3.53197
G1 X95.576 Y93.72 E3.55899
G1 X95.911 Y93.528 E3.5667
G1 X96.752 Y93.094 E3.58558
G1 X97.936 Y92.633 E3.61094
G1 X98.244 Y92.534 E3.6174
G1 X99.463 Y92.221 E3.64251
G1 X99.809 Y92.154 E3.64954
G1 X100.703 Y92.021 E3.66758
G1 X101.657 Y91.963 E3.68665
G1 X102.328 Y91.953 E3.70005
G1 X127.385 Y91.952 E4.20009
G1 X128.252 Y91.964 E4.21739
G1 X129.429 Y92.048 E4.24094
G1 X129.805 Y92.097 E4.2485
G1 X130.695 Y92.252 E4.26653
G1 X131.446 Y92.444 E4.282
G1 X131.777 Y92.542 E4.28889
G1 X132.685 Y92.857 E4.30807
G1 X133.769 Y93.361 E4.33193
G1 X134.028 Y93.5 E4.33779
G1 X134.804 Y93.963 E4.35583
G1 X135.29 Y94.301 E4.36764
G1 X135.668 Y94.581 E4.37703
G1 X136.399 Y95.175 E4.39582
G1 X137.172 Y95.937 E4.41748
G1 X137.466 Y96.258 E4.42617
G1 X138.072 Y96.985 E4.44506
G1 X138.798 Y98.074 E4.47118
G1 X139.008 Y98.436 E4.47953
G1 X139.443 Y99.277 E4.49842
G1 X139.94 Y100.562 E4.52592
G1 X140.053 Y100.923 E4.53347
G1 X140.359 Y102.156 E4.55882
G1 X140.413 Y102.449 E4.56477
G1 X140.541 Y103.376 E4.58344
G1 X140.587 Y104.198 E4.59987
G1 X140.597 Y104.841 E4.6127
G1 X140.598 Y124.914 E5.01328
G1 X140.586 Y125.797 E5.0309
G1 X140.503 Y126.968 E5.05433
G1 X140.455 Y127.338 E5.06178
G1 X140.295 Y128.259 E5.08043
G1 X140.115 Y128.963 E5.09493
G1 X140.01 Y129.32 E5.10236
G1 X139.718 Y130.175 E5.12039
G1 X139.095 Y131.508 E5.14975
G1 X138.535 Y132.433 E5.17133
G1 X137.991 Y133.189 E5.18992
G1 X137.385 Y133.937 E5.20913
G1 X136.661 Y134.678 E5.2298
G1 X136.347 Y134.969 E5.23835
G1 X135.629 Y135.575 E5.2571
G1 X134.865 Y136.112 E5.27573
G1 X134.1 Y136.566 E5.29348
G1 X133.298 Y136.982 E5.31151
G1 X132.064 Y137.467 E5.33797
G1 X131.756 Y137.566 E5.34443
G1 X130.537 Y137.879 E5.36955
G1 X130.191 Y137.946 E5.37658
G1 X129.297 Y138.079 E5.39462
G1 X128.343 Y138.137 E5.41369
G1 X127.672 Y138.147 E5.42708
G1 X102.615 Y138.148 E5.92712
G1 X101.749 Y138.136 E5.9444
G1 X100.59 Y138.054 E5.96759
G1 X100.217 Y138.006 E5.9751
G1 X99.327 Y137.853 E5.99312
G1 X98.564 Y137.659 E6.00883
G1 X98.212 Y137.554 E6.01616
G1 X97.319 Y137.245 E6.03502
G1 X96.219 Y136.733 E6.05923
G1 X95.957 Y136.591 E6.06518
G1 X95.158 Y136.112 E6.08377
G1 X94.7 Y135.792 E6.09492
G1 X94.328 Y135.516 E6.10416
G1 X93.599 Y134.922 E6.12293
G1 X92.868 Y134.207 E6.14333
G1 X92.571 Y133.885 E6.15207
G1 X91.967 Y133.167 E6.1708
G1 X91.43 Y132.403 E6.18943
G1 X90.985 Y131.652 E6.20686
G1 X90.541 Y130.789 E6.22622
G1 X90.059 Y129.531 E6.25311
G1 X89.923 Y129.091 E6.2623
G1 X89.619 Y127.834 E6.28811
G1 X89.572 Y127.568 E6.2935
G1 X89.454 Y126.673 E6.31151
G1 X89.413 Y125.885 E6.32726
G1 X89.402 Y125.035 E6.34422
G1 X89.403 Y104.993 E6.74418
G1 X89.414 Y104.288 E6.75825
G1 X89.498 Y103.119 E6.78164
G1 X89.546 Y102.751 E6.78905
G1 X89.707 Y101.829 E6.80773
G1 X89.899 Y101.09 E6.82296
G1 X90.005 Y100.734 E6.83038
G1 X90.301 Y99.88 E6.84841
G1 X90.899 Y98.602 E6.87657
G1 X91.456 Y97.681 E6.89805
G1 X92.027 Y96.887 E6.91757
G1 X92.595 Y96.185 E6.93559
G1 X93.391 Y95.374 E6.95826
G0 F6000 X93.661 Y95.669
G1 F1200 X93.976 Y95.381 E6.96678
G1 X94.669 Y94.802 E6.9848
G1 X95.775 Y94.067 E7.0113
G1 X96.095 Y93.883 E7.01867
G1 X96.897 Y93.467 E7.0367
G1 X98.058 Y93.014 E7.06157
G1 X98.366 Y92.915 E7.06803
G1 X99.539 Y92.614 E7.09219
G1 X99.868 Y92.55 E7.09888
G1 X100.762 Y92.417 E7.11692
G1 X101.663 Y92.363 E7.13493
G1 X102.328 Y92.353 E7.1482
G1 X127.38 Y92.352 E7.64814
G1 X128.224 Y92.363 E7.66499
G1 X129.378 Y92.445 E7.68808
G1 X129.736 Y92.491 E7.69528
G1 X130.626 Y92.646 E7.71331
G1 X131.332 Y92.828 E7.72786
G1 X131.663 Y92.926 E7.73475
G1 X132.516 Y93.22 E7.75275
G1 X133.6 Y93.724 E7.77661
G1 X133.823 Y93.844 E7.78166
G1 X134.599 Y94.307 E7.79969
G1 X135.052 Y94.623 E7.81072
G1 X135.416 Y94.892 E7.81975
G1 X136.118 Y95.46 E7.83777
G1 X136.877 Y96.207 E7.85902
G1 X137.159 Y96.515 E7.86735
G1 X137.739 Y97.207 E7.88537
G1 X138.465 Y98.296 E7.91149
G1 X138.653 Y98.621 E7.91898
G1 X139.07 Y99.422 E7.93701
G1 X139.558 Y100.681 E7.96395
G1 X139.671 Y101.042 E7.9715
G1 X139.966 Y102.229 E7.99591
G1 X140.017 Y102.504 E8.00149
G1 X140.142 Y103.398 E8.0195
G1 X140.187 Y104.204 E8.03561
G1 X140.197 Y104.841 E8.04833
G1 X140.198 Y124.909 E8.44881
G1 X140.187 Y125.769 E8.46597
G1 X140.106 Y126.917 E8.48894
G1 X140.061 Y127.27 E8.49604
G1 X139.907 Y128.16 E8.51406
G1 X139.731 Y128.85 E8.52827
G1 X139.631 Y129.191 E8.53537
G1 X139.339 Y130.046 E8.5534
G1 X138.753 Y131.301 E8.58104
G1 X138.21 Y132.199 E8.60198
G1 X137.666 Y132.955 E8.62056
G1 X137.099 Y133.658 E8.63859
G1 X136.389 Y134.385 E8.65887
G1 X136.088 Y134.664 E8.66706
G1 X135.399 Y135.248 E8.68508
G1 X134.661 Y135.768 E8.7031
G1 X133.916 Y136.211 E8.7204
G1 X133.114 Y136.627 E8.73843
G1 X131.942 Y137.086 E8.76354
G1 X131.634 Y137.185 E8.77
G1 X130.461 Y137.486 E8.79417
G1 X130.132 Y137.55 E8.80086
G1 X129.238 Y137.683 E8.81889
G1 X128.337 Y137.737 E8.83691
G1 X127.672 Y137.747 E8.85018
G1 X102.62 Y137.748 E9.35012
G1 X101.777 Y137.737 E9.36694
G1 X100.64 Y137.657 E9.38969
G1 X100.285 Y137.612 E9.39683
G1 X99.395 Y137.459 E9.41485
G1 X98.677 Y137.275 E9.42964
G1 X98.342 Y137.176 E9.43661
G1 X97.488 Y136.882 E9.45464
G1 X96.388 Y136.37 E9.47885
G1 X96.162 Y136.248 E9.48398
G1 X95.387 Y135.784 E9.502
G1 X94.938 Y135.47 E9.51294
G1 X94.58 Y135.205 E9.52182
G1 X93.879 Y134.636 E9.53984
G1 X93.162 Y133.935 E9.55985
G1 X92.877 Y133.627 E9.56823
G1 X92.294 Y132.937 E9.58625
G1 X91.774 Y132.199 E9.60427
G1 X91.329 Y131.448 E9.62169
G1 X90.915 Y130.646 E9.6397
G1 X90.433 Y129.388 E9.66659
G1 X90.312 Y128.997 E9.67475
G1 X90.013 Y127.764 E9.70007
G1 X89.969 Y127.516 E9.7051
G1 X89.851 Y126.621 E9.72311
G1 X89.813 Y125.88 E9.73792
G1 X89.802 Y125.035 E9.75479
G1 X89.803 Y104.999 E10.15463
G1 X89.813 Y104.317 E10.16824
G1 X89.895 Y103.17 E10.19119
G1 X89.94 Y102.819 E10.19825
G1 X90.094 Y101.929 E10.21627
G1 X90.282 Y101.204 E10.23122
G1 X90.383 Y100.865 E10.23828
G1 X90.679 Y100.011 E10.25631
G1 X91.241 Y98.809 E10.28279
G1 X91.781 Y97.914 E10.30365
G1 X92.338 Y97.139 E10.3227
G1 X92.906 Y96.437 E10.34072
G1 X93.661 Y95.669 E10.36221
G1 F1500 E6.36221
;MESH:switch_cover.stl(1)
G0 F6000 X114.063 Y122.608
G0 X115 Y122.448
;TYPE:WALL-INNER
G1 F1500 E10.36221
G1 F1200 X105.248 Y122.448 E10.55682
G1 X104.943 Y122.401 E10.56298
G1 X104.679 Y122.271 E10.56886
G1 X104.465 Y122.072 E10.57469
G1 X104.307 Y121.788 E10.58117
G1 X104.248 Y121.448 E10.58806
G1 X104.248 Y108.648 E10.8435
G1 X104.307 Y108.308 E10.85038
G1 X104.465 Y108.025 E10.85685
G1 X104.679 Y107.825 E10.8627
G1 X104.943 Y107.695 E10.86857
G1 X105.248 Y107.648 E10.87473
G1 X124.748 Y107.648 E11.26387
G1 X125.053 Y107.695 E11.27003
G1 X125.317 Y107.825 E11.2759
G1 X125.531 Y108.025 E11.28175
G1 X125.689 Y108.308 E11.28822
G1 X125.748 Y108.648 E11.2951
G1 X125.748 Y121.569 E11.55295
G1 X125.689 Y121.788 E11.55748
G1 X125.531 Y122.072 E11.56397
G1 X125.317 Y122.272 E11.56981
G1 X125.053 Y122.401 E11.57568
G1 X124.748 Y122.448 E11.58183
G1 X115 Y122.448 E11.77637
G0 F6000 X115 Y122.048
G1 F1200 X105.248 Y122.048 E11.97098
G1 X105.065 Y122.02 E11.97467
G1 X104.778 Y121.823 E11.98162
G1 X104.683 Y121.652 E11.98552
G1 X104.648 Y121.448 E11.98965
G1 X104.648 Y108.648 E12.24509
G1 X104.683 Y108.444 E12.24922
G1 X104.778 Y108.274 E12.25311
G1 X104.906 Y108.154 E12.25661
G1 X105.065 Y108.076 E12.26014
G1 X105.248 Y108.048 E12.26384
G1 X124.748 Y108.048 E12.65298
G1 X124.931 Y108.076 E12.65668
G1 X125.09 Y108.154 E12.66021
G1 X125.218 Y108.274 E12.66371
G1 X125.313 Y108.444 E12.6676
G1 X125.348 Y108.648 E12.67173
G1 X125.348 Y121.522 E12.92864
G1 X125.218 Y121.823 E12.93519
G1 X124.931 Y122.02 E12.94213
G1 X124.748 Y122.048 E12.94583
G1 X115 Y122.048 E13.14036
G1 F1500 E9.14036
G0 F6000 X115 Y122.35
G0 X115 Y122.628
G0 X115 Y126.348
G0 X115 Y126.548
G1 F1500 E13.14036
G1 F1200 X128.08 Y126.548 E13.40138
G1 X128.416 Y126.46 E13.40832
G1 X128.734 Y126.215 E13.41633
G1 X128.921 Y125.933 E13.42308
G1 X128.996 Y125.564 E13.43059
G1 X128.996 Y104.458 E13.85179
G1 X128.91 Y104.135 E13.85846
G1 X128.668 Y103.811 E13.86653
G1 X128.381 Y103.624 E13.87336
G1 X128.019 Y103.552 E13.88073
G1 X101.91 Y103.552 E14.40176
G1 X101.58 Y103.637 E14.40856
G1 X101.266 Y103.877 E14.41645
G1 X101.073 Y104.168 E14.42342
G1 X101 Y104.532 E14.43083
G1 X101 Y125.635 E14.85196
G1 X101.088 Y125.968 E14.85883
G1 X101.325 Y126.282 E14.86668
G1 X101.617 Y126.472 E14.87364
G1 X101.984 Y126.548 E14.88112
G1 X115 Y126.548 E15.14086
G0 F6000 X115 Y126.948
G1 F1200 X128.12 Y126.948 E15.40269
G1 X128.59 Y126.823 E15.41239
G1 X128.839 Y126.663 E15.4183
G1 X129.029 Y126.487 E15.42347
G1 X129.183 Y126.29 E15.42846
G1 X129.34 Y125.998 E15.43507
G1 X129.396 Y125.591 E15.44327
G1 X129.396 Y104.421 E15.86574
G1 X129.272 Y103.959 E15.87529
G1 X129.112 Y103.705 E15.88128
G1 X128.94 Y103.516 E15.88638
G1 X128.46 Y103.204 E15.8978
G1 X128.043 Y103.152 E15.90619
G1 X101.872 Y103.152 E16.42846
G1 X101.406 Y103.273 E16.43807
G1 X101.157 Y103.433 E16.44398
G1 X100.969 Y103.606 E16.44907
G1 X100.73 Y103.919 E16.45693
G1 X100.637 Y104.234 E16.46349
G1 X100.6 Y104.505 E16.46895
G1 X100.6 Y125.673 E16.89138
G1 X100.725 Y126.142 E16.90106
G1 X100.958 Y126.505 E16.90967
G1 X101.367 Y126.815 E16.91991
G1 X101.688 Y126.911 E16.9266
G1 X101.957 Y126.948 E16.93202
G1 X115 Y126.948 E17.1923
G0 F6000 X115 Y127.348
;TYPE:WALL-OUTER
G1 F1200 X128.16 Y127.348 E17.45493
G1 X128.468 Y127.286 E17.4612
G1 X128.764 Y127.186 E17.46743
G1 X129.085 Y126.981 E17.47503
G1 X129.324 Y126.759 E17.48154
G1 X129.519 Y126.51 E17.48785
G1 X129.665 Y126.239 E17.494
G1 X129.751 Y125.946 E17.50009
G1 X129.796 Y125.618 E17.5067
G1 X129.796 Y104.383 E17.93046
G1 X129.738 Y104.077 E17.93668
G1 X129.634 Y103.784 E17.94288
G1 X129.432 Y103.462 E17.95047
G1 X129.212 Y103.22 E17.957
G1 X128.962 Y103.029 E17.96327
G1 X128.69 Y102.882 E17.96944
G1 X128.398 Y102.793 E17.97554
G1 X128.067 Y102.752 E17.98219
G1 X101.835 Y102.752 E18.50568
G1 X101.527 Y102.81 E18.51193
G1 X101.232 Y102.91 E18.51815
G1 X100.911 Y103.115 E18.52575
G1 X100.673 Y103.336 E18.53223
G1 X100.48 Y103.586 E18.53854
G1 X100.33 Y103.858 E18.54473
G1 X100.245 Y104.15 E18.5508
G1 X100.2 Y104.478 E18.55741
G1 X100.2 Y125.712 E18.98116
G1 X100.262 Y126.02 E18.98743
G1 X100.362 Y126.316 E18.99366
G1 X100.568 Y126.637 E19.00127
G1 X100.784 Y126.875 E19.00769
G1 X101.037 Y127.067 E19.01403
G1 X101.306 Y127.214 E19.02014
G1 X101.603 Y127.303 E19.02633
G1 X101.93 Y127.348 E19.03292
G1 X115 Y127.348 E19.29374
G1 F1500 E15.29374
G0 F6000 X115 Y126.648
G0 X115 Y126.348
G0 X115 Y122.628
G0 X115 Y122.35
G0 X115 Y121.647
G1 F1500 E19.29374
G1 F1200 X105.205 Y121.648 E19.48921
G1 X105.048 Y121.496 E19.49357
G1 X105.048 Y108.594 E19.75105
G1 X105.134 Y108.483 E19.75385
G1 X105.213 Y108.45 E19.75556
G1 X124.791 Y108.448 E20.14626
G1 X124.948 Y108.6 E20.15062
G1 X124.946 Y121.483 E20.40771
G1 X124.905 Y121.573 E20.40969
G1 X124.783 Y121.646 E20.41252
G1 X115 Y121.647 E20.60776
G1 F1500 E16.60776
G0 F6000 X115 Y122.35
